file/lukoil.svg

<svg clip-rule="evenodd" fill-rule="evenodd" stroke-linejoin="round" stroke-miterlimit="1.41421" viewBox="0 0 560 400" xmlns="http://www.w3.org/2000/svg"><g fill-rule="nonzero" transform="matrix(8.67219 0 0 -8.67219 -410.388 7305.59)"><g fill="#231f20"><path d="m0 0h2.2v-5.972h2.357v-1.886h-4.557z" transform="translate(65.9852 823.427)"/><path d="m0 0v4.681h2.2v-4.636c0-.483.09-1.56 1.257-1.56 1.168 0 1.258 1.077 1.258 1.56v4.636h2.2v-4.681c0-.842-.18-3.401-3.458-3.401-3.277 0-3.457 2.559-3.457 3.401" transform="translate(71.4269 818.745)"/><path d="m0 0h2.2v-3.3l2.369 3.3h2.582l-2.986-3.805 3.064-4.053h-2.75l-2.279 3.379v-3.379h-2.2z" transform="translate(79.7761 823.427)"/><path d="m96.991 815.569h2.2v7.858h-2.2z"/><path d="m0 0h2.2v-5.972h2.358v-1.886h-4.558z" transform="translate(100.803 823.427)"/><path d="m0 0c0 1.551-.954 2.32-1.999 2.32s-1.999-.769-1.999-2.32.954-2.32 1.999-2.32 1.999.769 1.999 2.32m-6.318 0c0 2.148 1.379 4.25 4.319 4.25 2.941 0 4.319-2.102 4.319-4.25s-1.378-4.25-4.319-4.25c-2.94 0-4.319 2.102-4.319 4.25" transform="translate(93.4033 819.492)"/></g><path d="m53.858 814.165h10.356v10.378h-10.356z" fill="#e22739"/><path d="m0 0-1.163-1.881c-.127-.211-.108-.377-.049-.537l1.766-4.518h-7.314c-.656 0-1.164.527-1.164 1.155l-.007 6.014c.018.777 1.15.79 1.171.003v-5.637c-.002-.179.155-.38.362-.375h5.357l-1.387 3.264c-.036.125-.061.249-.061.374 0 .138.061.359.152.539l1.273 2.096c.094.188.284.315.51.324.317.014.588-.204.602-.541.001-.067-.015-.214-.048-.28" fill="#fff" transform="translate(63.0684 822.573)"/><path d="m0 0v4.034c0 .787 1.148.793 1.161 0v-4.078c0-.933-.697-1.55-1.551-1.55-.853 0-1.552.632-1.552 1.55v4.078c0 .787 1.161.787 1.161 0v-4.034c0-.541.781-.574.781 0" fill="#fff" transform="translate(59.0343 818.775)"/></g></svg>

<?xml version="1.0" encoding="UTF-8" standalone="no"?>
<!DOCTYPE svg PUBLIC "-//W3C//DTD SVG 1.1//EN" "http://www.w3.org/Graphics/SVG/1.1/DTD/svg11.dtd">
<svg width="100%" height="100%" viewBox="0 0 560 400" version="1.1" xmlns="http://www.w3.org/2000/svg" xmlns:xlink="http://www.w3.org/1999/xlink" xml:space="preserve" xmlns:serif="http://www.serif.com/" style="fill-rule:evenodd;clip-rule:evenodd;stroke-linejoin:round;stroke-miterlimit:1.41421;">
    <g transform="matrix(8.67219,0,0,-8.67219,-410.388,7305.59)">
        <g id="path3015" transform="matrix(1,0,0,1,65.9852,823.427)">
            <path d="M0,0L2.2,0L2.2,-5.972L4.557,-5.972L4.557,-7.858L0,-7.858L0,0Z" style="fill:rgb(35,31,32);fill-rule:nonzero;"/>
        </g>
        <g id="path3027" transform="matrix(1,0,0,1,71.4269,818.745)">
            <path d="M0,0L0,4.681L2.2,4.681L2.2,0.045C2.2,-0.438 2.29,-1.515 3.457,-1.515C4.625,-1.515 4.715,-0.438 4.715,0.045L4.715,4.681L6.915,4.681L6.915,0C6.915,-0.842 6.735,-3.401 3.457,-3.401C0.18,-3.401 0,-0.842 0,0" style="fill:rgb(35,31,32);fill-rule:nonzero;"/>
        </g>
        <g id="path3031" transform="matrix(1,0,0,1,79.7761,823.427)">
            <path d="M0,0L2.2,0L2.2,-3.3L4.569,0L7.151,0L4.165,-3.805L7.229,-7.858L4.479,-7.858L2.2,-4.479L2.2,-7.858L0,-7.858L0,0Z" style="fill:rgb(35,31,32);fill-rule:nonzero;"/>
        </g>
        <rect id="path3033" x="96.991" y="815.569" width="2.2" height="7.858" style="fill:rgb(35,31,32);fill-rule:nonzero;"/>
        <g id="path3037" transform="matrix(1,0,0,1,100.803,823.427)">
            <path d="M0,0L2.2,0L2.2,-5.972L4.558,-5.972L4.558,-7.858L0,-7.858L0,0Z" style="fill:rgb(35,31,32);fill-rule:nonzero;"/>
        </g>
        <g id="path3049" transform="matrix(1,0,0,1,93.4033,819.492)">
            <path d="M0,0C0,1.551 -0.954,2.32 -1.999,2.32C-3.044,2.32 -3.998,1.551 -3.998,0C-3.998,-1.551 -3.044,-2.32 -1.999,-2.32C-0.954,-2.32 0,-1.551 0,0M-6.318,0C-6.318,2.148 -4.939,4.25 -1.999,4.25C0.942,4.25 2.32,2.148 2.32,0C2.32,-2.148 0.942,-4.25 -1.999,-4.25C-4.939,-4.25 -6.318,-2.148 -6.318,0" style="fill:rgb(35,31,32);fill-rule:nonzero;"/>
        </g>
        <rect id="path3051" x="53.858" y="814.165" width="10.356" height="10.378" style="fill:rgb(226,39,57);fill-rule:nonzero;"/>
        <g id="g3055">
            <g id="path3063" transform="matrix(1,0,0,1,63.0684,822.573)">
                <path d="M0,0L-1.163,-1.881C-1.29,-2.092 -1.271,-2.258 -1.212,-2.418L0.554,-6.936L-6.76,-6.936C-7.416,-6.936 -7.924,-6.409 -7.924,-5.781L-7.931,0.233C-7.913,1.01 -6.781,1.023 -6.76,0.236L-6.76,-5.401C-6.762,-5.58 -6.605,-5.781 -6.398,-5.776L-1.041,-5.776L-2.428,-2.512C-2.464,-2.387 -2.489,-2.263 -2.489,-2.138C-2.489,-2 -2.428,-1.779 -2.337,-1.599L-1.064,0.497C-0.97,0.685 -0.78,0.812 -0.554,0.821C-0.237,0.835 0.034,0.617 0.048,0.28C0.049,0.213 0.033,0.066 0,0" style="fill:white;fill-rule:nonzero;"/>
            </g>
            <g id="path3067" transform="matrix(1,0,0,1,59.0343,818.775)">
                <path d="M0,0L0,4.034C0,4.821 1.148,4.827 1.161,4.034L1.161,-0.044C1.161,-0.977 0.464,-1.594 -0.39,-1.594C-1.243,-1.594 -1.942,-0.962 -1.942,-0.044L-1.942,4.034C-1.942,4.821 -0.781,4.821 -0.781,4.034L-0.781,0C-0.781,-0.541 0,-0.574 0,0" style="fill:white;fill-rule:nonzero;"/>
            </g>
        </g>
    </g>
</svg>
